!!!OTL: Gongnonghongjun daogutian
!!!ARE: Asia, China, Fujian Shanghang
!! II, 584, 1)
!!!SCT: C2005
!!!YEM: Copyright 1995, estate of Helmut Schaffrath.
**kern
*ICvox
*Ivox
!! Mixed meters:  2/4; 3/4
*M2/4
*k[f#c#]
*D:
{8a
8a
16a
16dd
16b
16a
=1
2ee}
=2
*M3/4
{8ee
8dd
16dd
16b
4.a}
=3
*M2/4
{8a
8dd
8b
8ee
=4
*M3/4
8b
8a
8dd
4.b}
=5
*M2/4
{16a
16f#
4.a
=6
12ee
12dd
12b
16b
16ee
16dd
16b
=7
2a}
=8
{8a
8dd
16b
16dd
8a
=9
4.b}
{8b
=10
8a
8dd
8dd
8b
=11
2a}
==
!!!AGN: Shange, Gutianshange
!!!AMT: irregular
!!!AIN: vox
!!!EED: Helmut Schaffrath
!!!EEV: 1.0
*-
